X:40
T:Jack of the Green. JJo2.040
Z:vmp.Ruairidh Greig 2014 www.village-music-project.org.uk
B:J.Johnson Choice Collection Vol 2 after c1750
M:9/4
L:1/4
Q:1/4=160
N:Bars 2,4,6, and 8 are awkward to read, as it's an odd syncopation to modern ears
K:D
C2ED/E/FDE/F/GE|F2"^sic"A2EAF2D|C2ED/E/FDE/F/GE|c2d2AGF2D:|
|:d2gecAB/c/dB|c2e2EAF2(E/D/)|d2fecAB/c/dB|c2d2AGF2D:|
